X:1
T:Title
%%score { ( 1 2 ) | ( 3 4 ) }
L:1/8
Q:1/4=100
M:6/8
K:Ab
V:1 treble nm="Grand Piano"
V:2 treble 
V:3 bass 
V:4 bass 
V:1
 [Ec]>[Ec][Ec] cB[EA] | [FA]>B[A,FA] [A,DF]3 | [A,CE]>[A,CA][A,CA] [A,EA][B,EG][CEA] | B2 c B3 | %4
w: J.~H.~Fenimore * * * * *||||
 [Ec]2 [Ec] cB[EA] | [FA]>[GB][FA] [DF]3 | [CE]2 [CA] [EA][DG][CA] | [Ec]2 [DB] [CA]3 | %8
w: ||||
 B>BB e2 [EB] | [EA]2 B c3 | [Fd]2 [Fd] [EA]2 B | c2 c B3 | [Ec]>[Ec][Ec] [Ec][EB][EA] | %13
w: |||||
 [FA]>B[A,FA] [A,DF]3 | [A,CE]>[A,DA][A,CA] E-[B,EG][CEA] |[M:7/8] [Ec]3 [DB] [CA]3 |] %16
w: |||
V:2
 z3 .E3 | x6 | x6 | x6 | z3 .E3 | x6 | x6 | x6 | x6 | x6 | x6 | x6 | x6 | x6 | z3 .[A,A]3 | %15
[M:7/8] x7 |] %16
V:3
 [A,,A,]>[A,,A,][A,,A,] [A,,A,][B,,G,][C,A,] | z z/ G/D, D,3 | A,,>A,,A,, C,B,,A,, | %3
 [E,G,E]2 [E,A,E] [E,G,E]3 | [A,,A,]2 [A,,A,] [A,,A,][B,,G,][C,A,] | [D,A,]2 [D,A,] [D,A,]3 | %6
 [A,,A,]2 [A,,A,] [C,A,][B,,G,][A,,A,] | [E,A,]2 [E,G,] [A,,A,]3 | %8
 [E,G,E]>[E,G,E][E,G,E] [E,G,E]2 [D,G,] | [C,A,]2 [E,G,E] [A,E]3 | [D,A,]2 [D,A,] [C,A,]2 [E,G,E] | %11
 [A,E]2 [A,E] [E,G,E]3 | [A,,A,]>[A,,A,][A,,A,] [A,,A,][B,,G,][C,A,] | z z/ G/D, D,3 | %14
 A,,>A,,A,, C,B,,A,, |[M:7/8] [E,A,]3 [E,G,] [A,,A,]3 |] %16
V:4
 x6 | .[D,A,]3 z3 | x6 | x6 | x6 | x6 | x6 | x6 | x6 | x6 | x6 | x6 | x6 | .[D,A,]3 z3 | x6 | %15
[M:7/8] x7 |] %16

